X:150
T:The White Petticoat
M:6/8
L:1/8
R:jig
D:Solas: Solas
N:Set is ~ - Stan Chapman's - The Miller's Maggot
K:Em
A|Bed cBA|GFE B,EG|FBB {d}c2B|eBB {d}cBA|
Bed {d}cBA|GFE B,EG|FBB {d}cBA|GEE E2:|
|:g|{a}gec Gce|gaf {a}gec|{d}cBA EAc|Be^d eBG|
FBB GBB|FBA GFE|B,EG cBA|GEE E2:|
